!!!ONB: MCCC : ILB0175_01 : Extracted Monophonic Melody
!!!COM: Beethoven, Ludwig van
!!!OPR: Piano Sonata No.14
!!!OMV: 1
!!!SCT: Op.27 No.2
!!!ODT: 1802///
**kern
*thru
*staff1
*Ipiano
*clefG2
*k[f#c#g#d#]
*c#:
*M2/2
*MM54
=1
12G#
12c#
12e
12G#
12c#
12e
12G#
12c#
12e
12G#
12c#
12e
*Xtuplet
=2
12G#
12c#
12e
12G#
12c#
12e
12G#
12c#
12e
12G#
12c#
12e
=3
12A
12c#
12e
12A
12c#
12e
12A
12d
12f#
12A
12d
12f#
=4
12G#
12B#
12f#
12G#
12c#
12e
12G#
12c#
12d#
12F#
12B#
12d#
=5
12E
12G#
12c#
12G#
12c#
12e
12G#
12c#
12e
8.g#
16g#
=6
2.g#
8.g#
16g#
=7
2g#
2a
=8
2g#
4f#
4b
=9
4e
12G#
12B
12e
12G#
12B
12e
12G#
12B
12e
=10
12G
12B
12e
12G
12B
12e
12G
12B
12e
8.g
16g
=11
2.g
8.g
16g
=12
2.g
4f#
=13
2f#
4g
4e
=14
2f#
2f#
=15
12B
12d
12f#
12B
12d
12f#
12B
12d#
12f#
4b
=16
2.cc
4a#
=17
2.b
4b
=18
2.cc
4a#
=19
2b
2b
=20
2b
2a
=21
2g
2f#
=22
2c#
4c#
4c#
=23
12F#
12A
12c#
12A
12c#
12f#
12c#
12f#
12a
8.cc#
16cc#
=24
2.cc#
8.cc#
16cc#
=25
2cc#
4b#
4cc#
=26
2.dd#
4dd#
=27
2ee
4dd#
4cc#
=28
12b#
12B#
12d#
12g#
12B#
12d#
12a
12B#
12d#
12f#
12B#
12d#
=29
12r
12B#
12d#
12G#
12B#
12d#
12A
12B#
12d#
12F#
12B#
12d#
=30
12E
12e
12g#
12cc#
12e
12g#
12ee
12e
12g#
12cc#
12e
12g#
=31
12r
12E
12G#
12c#
12E
12G#
12e
12E
12G#
12c#
12E
12G#
=32
12D#
12A
12F#
12B#
12A
12d#
12B#
12f#
12d#
12a
12f#
12b#
=33
12E
12c#
12G#
12e
12c#
12g#
12e
12cc#
12g#
12ee
12cc#
12g#
=34
12c#
12f##
12e
12a#
12f##
12cc#
12a#
12ee
12cc#
12ff##
12ee
12aa#
=35
12f#
12b#
12a
12dd#
12b#
12ff#
12dd#
12aa
12ff#
12bb#
12aa
12ddd#
=36
12bb#
12ff#
12aa
12dd#
12ff#
12b#
12dd#
12a
12b#
12f#
12a
12d#
=37
12f#
12B#
12d#
12A
12B#
12F#
12A
6D#
6.C#
=38
12BB#
12F#
12G#
12A
12G#
12F#
12D#
12F#
12A
12C#
12F#
12A
=39
12BB#
12F#
12G#
12A
12G#
12F#
12D
12F#
12A
12C#
12F#
12A
=40
12BB#
12F#
12G#
12A
12G#
12F#
12C#
12E
12c#
12C#
12E
12c#
=41
1r
=42
4r
12G#
12c#
12e
12G#
12c#
12e
8.g#
16g#
=43
2.g#
8.g#
16g#
=44
2g#
2a
=45
2g#
4f#
4b
=46
4e
12B
12e
12g#
12B
12e
12g#
8.b
16b
=47
2.b
8.b
16b
=48
2b
4b#
4cc#
=49
2dd#
2ee
=50
2dd
2b#
=51
2.cc#
4cc#
=52
2.dd
4b#
=53
2.cc#
4cc#
=54
2.dd
4b#
=55
2cc#
2cc#
=56
2.b
4b
=57
4a
4a
4g#
4g#
=58
2f#
4g#
4a
=59
2g#
2g#
=60
4c#
12G#
12c#
12e
12G#
12c#
12e
12G#
12c#
12e
=61
12G#
12d#
12f#
12G#
12d#
12f#
12G#
12d#
12f#
12G#
12d#
12f#
=62
12G#
12e
12c#
12g#
12e
12cc#
12g#
12ee
12cc#
12gg#
12ee
12cc#
=63
12b#
12dd#
12a
12b#
12f#
12a
12d#
12f#
12A
4B#
=64
12c#
12e
12c#
12g#
12e
12cc#
12g#
12ee
12cc#
12gg#
12ee
12cc#
=65
12b#
12dd#
12a
12b#
12f#
12a
12d#
12f#
12A
4B#
=66
1r
=67
1r
=68
1r
=69
1r
==
*-
